packages/ffe-icons/icons/open/400/sm/problem.svg

<svg xmlns="http://www.w3.org/2000/svg" height="20" viewBox="0 -960 960 960" width="20"><path d="M275.789-336Q291-336 301.5-346.289q10.5-10.29 10.5-25.5Q312-387 301.711-397.5q-10.29-10.5-25.5-10.5Q261-408 250.5-397.711q-10.5 10.29-10.5 25.5Q240-357 250.289-346.5q10.29 10.5 25.5 10.5Zm0-120Q291-456 301.5-466.35 312-476.7 312-492v-96q0-15.3-10.289-25.65-10.29-10.35-25.5-10.35Q261-624 250.5-613.65 240-603.3 240-588v96q0 15.3 10.289 25.65 10.29 10.35 25.5 10.35Zm192.171 96h215.757Q699-360 709.5-370.289q10.5-10.29 10.5-25.5Q720-411 709.662-421.5 699.323-432 684.04-432H468.283Q453-432 442.5-421.711q-10.5 10.29-10.5 25.5Q432-381 442.338-370.5 452.677-360 467.96-360Zm0-168h215.757Q699-528 709.5-538.289q10.5-10.29 10.5-25.5Q720-579 709.662-589.5 699.323-600 684.04-600H468.283Q453-600 442.5-589.711q-10.5 10.29-10.5 25.5Q432-549 442.338-538.5 452.677-528 467.96-528ZM168-192q-29.7 0-50.85-21.162Q96-234.324 96-264.04v-432.243Q96-726 117.15-747T168-768h624q29.7 0 50.85 21.162Q864-725.676 864-695.96v432.243Q864-234 842.85-213T792-192H168Zm0-72h624v-432H168v432Zm0 0v-432 432Z"/></svg>

<svg xmlns="http://www.w3.org/2000/svg" height="20" viewBox="0 -960 960 960" width="20"><path d="M275.79-336q15.21 0 25.71-10.29t10.5-25.5q0-15.21-10.29-25.71t-25.5-10.5q-15.21 0-25.71 10.29t-10.5 25.5q0 15.21 10.29 25.71t25.5 10.5Zm0-120q15.21 0 25.71-10.35T312-492v-96q0-15.3-10.29-25.65Q291.42-624 276.21-624t-25.71 10.35Q240-603.3 240-588v96q0 15.3 10.29 25.65Q260.58-456 275.79-456Zm192.17 96h215.76q15.28 0 25.78-10.29 10.5-10.29 10.5-25.5t-10.34-25.71Q699.32-432 684.04-432H468.28q-15.28 0-25.78 10.29-10.5 10.29-10.5 25.5t10.34 25.71q10.34 10.5 25.62 10.5Zm0-168h215.76q15.28 0 25.78-10.29 10.5-10.29 10.5-25.5t-10.34-25.71Q699.32-600 684.04-600H468.28q-15.28 0-25.78 10.29-10.5 10.29-10.5 25.5t10.34 25.71q10.34 10.5 25.62 10.5ZM168-192q-29.7 0-50.85-21.16Q96-234.32 96-264.04v-432.24Q96-726 117.15-747T168-768h624q29.7 0 50.85 21.16Q864-725.68 864-695.96v432.24Q864-234 842.85-213T792-192H168Zm0-72h624v-432H168v432Zm0 0v-432 432Z"/></svg>
